third_party/noto/noto_2/emoji_u1f4bc.svg

<svg enable-background="new 0 0 128 128" viewBox="0 0 128 128" xmlns="http://www.w3.org/2000/svg"><linearGradient id="c" x1="64" x2="64" y1="11.356" y2="38.041" gradientUnits="userSpaceOnUse"><stop stop-color="#A1887F" offset=".0005936"/><stop stop-color="#927971" offset=".2381"/><stop stop-color="#6C524B" offset=".6929"/><stop stop-color="#4E342E" offset="1"/></linearGradient><path d="m79.46 20.88v12.32h-30.92v-12.32h30.92m4.18-9.42h-39.28c-2.89 0-5.23 2.34-5.23 5.23v20.69c0 2.89 2.34 5.23 5.23 5.23h39.28c2.89 0 5.23-2.34 5.23-5.23v-20.69c0-2.89-2.34-5.23-5.23-5.23z" fill="url(#c)"/><linearGradient id="b" x1="64" x2="64" y1="34.378" y2="116.06" gradientUnits="userSpaceOnUse"><stop stop-color="#4E342E" offset="0"/><stop stop-color="#503630" offset=".424"/><stop stop-color="#583D36" offset=".618"/><stop stop-color="#644941" offset=".7651"/><stop stop-color="#765950" offset=".8878"/><stop stop-color="#8D6E63" offset=".9933"/></linearGradient><path d="m14.22 33.44h99.57c4.43 0 8.03 3.59 8.03 8.03v67.16c0 4.43-3.59 8.03-8.03 8.03h-99.57c-4.44 0-8.03-3.6-8.03-8.03v-67.16c0-4.43 3.59-8.03 8.03-8.03z" fill="url(#b)"/><linearGradient id="a" x1="64" x2="64" y1="29.93" y2="80.463" gradientUnits="userSpaceOnUse"><stop stop-color="#BCAAA4" offset=".0067402"/><stop stop-color="#6D4C41" offset="1"/></linearGradient><path d="m116.88 29.78h-105.76c-3.77 0-6.82 3.05-6.82 6.82v27.27c0 1.08 0.54 2.07 1.44 2.68 13.26 8.99 35.93 13.89 58.26 14.34 22.33-0.45 45-5.35 58.26-14.34 0.89-0.6 1.44-1.6 1.44-2.68v-27.27c0-3.76-3.05-6.82-6.82-6.82z" fill="url(#a)"/><path d="m72.45 79.94v8.71c0 0.49-0.73 0.89-1.63 0.89h-13.64c-0.9 0-1.63-0.4-1.63-0.89v-8.71c0-0.49 0.73-0.89 1.63-0.89h13.64c0.9 0 1.63 0.39 1.63 0.89z" fill="#FFCA28"/><path d="m74.49 77.2v1.96c0 0.9-0.73 1.63-1.63 1.63h-17.72c-0.9 0-1.63-0.73-1.63-1.63v-1.96c0-0.9 0.73-1.63 1.63-1.63h17.71c0.91 0 1.64 0.73 1.64 1.63z" fill="#F9A825"/><g opacity=".2"><path d="m83.64 14.46c1.23 0 2.23 1 2.23 2.23v13.09c0 1.66 1.34 3 3 3h28.01c2.11 0 3.82 1.71 3.82 3.82v27.27c0 0.07-0.04 0.14-0.12 0.19-0.04 0.03-0.08 0.05-0.13 0.08-0.1 0.06-0.2 0.12-0.3 0.19-0.84 0.56-1.35 1.5-1.35 2.5v41.8c0 2.77-2.26 5.03-5.03 5.03h-99.55c-2.77 0-5.03-2.26-5.03-5.03v-41.8c0-1.01-0.51-1.95-1.35-2.5-0.1-0.06-0.2-0.13-0.3-0.19-0.04-0.03-0.09-0.05-0.13-0.08-0.07-0.05-0.12-0.12-0.12-0.19v-27.27c0-2.11 1.71-3.82 3.82-3.82h28.01c1.66 0 3-1.34 3-3v-13.09c0-1.23 1-2.23 2.23-2.23h39.29m-35.1 18.32h30.92c1.66 0 3-1.34 3-3v-8.9c0-1.66-1.34-3-3-3h-30.92c-1.66 0-3 1.34-3 3v8.9c0 1.66 1.35 3 3 3m35.1-21.32h-39.28c-2.89 0-5.23 2.34-5.23 5.23v13.09h-28.01c-3.77 0-6.82 3.05-6.82 6.82v27.27c0 1.08 0.54 2.07 1.44 2.68 0.14 0.1 0.3 0.19 0.45 0.28v41.8c0 4.44 3.6 8.03 8.03 8.03h99.57c4.43 0 8.03-3.59 8.03-8.03v-41.8c0.15-0.1 0.31-0.19 0.45-0.28 0.89-0.6 1.44-1.6 1.44-2.68v-27.27c0-3.77-3.05-6.82-6.82-6.82h-28.02v-13.09c0-2.89-2.34-5.23-5.23-5.23zm-35.1 18.32v-8.9h30.91v8.9h-30.91z" fill="#424242"/></g></svg>

<svg width="128" height="128" style="enable-background:new 0 0 128 128;" xmlns="http://www.w3.org/2000/svg" xmlns:xlink="http://www.w3.org/1999/xlink">
  <g id="图层_1">
    <g>
      <linearGradient id="SVGID_1_" gradientUnits="userSpaceOnUse" x1="64" x2="64" y1="11.3563" y2="38.0412">
        <stop offset="5.935968e-04" style="stop-color:#A1887F"/>
        <stop offset="0.2381" style="stop-color:#927971"/>
        <stop offset="0.6929" style="stop-color:#6C524B"/>
        <stop offset="1" style="stop-color:#4E342E"/>
      </linearGradient>
      <path d="M79.46,20.88V33.2H48.54V20.88H79.46 M83.64,11.46H44.36c-2.89,0-5.23,2.34-5.23,5.23v20.69 c0,2.89,2.34,5.23,5.23,5.23h39.28c2.89,0,5.23-2.34,5.23-5.23V16.69C88.87,13.8,86.53,11.46,83.64,11.46L83.64,11.46z" style="fill:url(#SVGID_1_);"/>
      <linearGradient id="SVGID_3_" gradientUnits="userSpaceOnUse" x1="64" x2="64" y1="34.3775" y2="116.0583">
        <stop offset="0" style="stop-color:#4E342E"/>
        <stop offset="0.424" style="stop-color:#503630"/>
        <stop offset="0.618" style="stop-color:#583D36"/>
        <stop offset="0.7651" style="stop-color:#644941"/>
        <stop offset="0.8878" style="stop-color:#765950"/>
        <stop offset="0.9933" style="stop-color:#8D6E63"/>
      </linearGradient>
      <path d="M14.22,33.44h99.57c4.43,0,8.03,3.59,8.03,8.03v67.16c0,4.43-3.59,8.03-8.03,8.03H14.22 c-4.44,0-8.03-3.6-8.03-8.03V41.47C6.19,37.04,9.78,33.44,14.22,33.44z" style="fill:url(#SVGID_3_);"/>
      <linearGradient id="SVGID_4_" gradientUnits="userSpaceOnUse" x1="64" x2="64" y1="29.9302" y2="80.4632">
        <stop offset="6.740196e-03" style="stop-color:#BCAAA4"/>
        <stop offset="1" style="stop-color:#6D4C41"/>
      </linearGradient>
      <path d="M116.88,29.78H64H11.12c-3.77,0-6.82,3.05-6.82,6.82v27.27c0,1.08,0.54,2.07,1.44,2.68 C19,75.54,41.67,80.44,64,80.89c22.33-0.45,45-5.35,58.26-14.34c0.89-0.6,1.44-1.6,1.44-2.68V36.6 C123.7,32.84,120.65,29.78,116.88,29.78z" style="fill:url(#SVGID_4_);"/>
      <path d="M72.45,79.94v8.71c0,0.49-0.73,0.89-1.63,0.89H57.18c-0.9,0-1.63-0.4-1.63-0.89v-8.71 c0-0.49,0.73-0.89,1.63-0.89h13.64C71.72,79.05,72.45,79.44,72.45,79.94z" style="fill:#FFCA28;"/>
      <path d="M74.49,77.2v1.96c0,0.9-0.73,1.63-1.63,1.63H55.14c-0.9,0-1.63-0.73-1.63-1.63V77.2 c0-0.9,0.73-1.63,1.63-1.63h17.71C73.76,75.57,74.49,76.3,74.49,77.2z" style="fill:#F9A825;"/>
      <g style="opacity:0.2;">
        <path d="M83.64,14.46c1.23,0,2.23,1,2.23,2.23v13.09c0,1.66,1.34,3,3,3h28.01c2.11,0,3.82,1.71,3.82,3.82 v27.27c0,0.07-0.04,0.14-0.12,0.19c-0.04,0.03-0.08,0.05-0.13,0.08c-0.1,0.06-0.2,0.12-0.3,0.19c-0.84,0.56-1.35,1.5-1.35,2.5 v41.8c0,2.77-2.26,5.03-5.03,5.03H14.22c-2.77,0-5.03-2.26-5.03-5.03v-41.8c0-1.01-0.51-1.95-1.35-2.5 c-0.1-0.06-0.2-0.13-0.3-0.19c-0.04-0.03-0.09-0.05-0.13-0.08c-0.07-0.05-0.12-0.12-0.12-0.19V36.6c0-2.11,1.71-3.82,3.82-3.82 h28.01c1.66,0,3-1.34,3-3V16.69c0-1.23,1-2.23,2.23-2.23H83.64 M48.54,32.78H64h15.46c1.66,0,3-1.34,3-3v-8.9c0-1.66-1.34-3-3-3 H48.54c-1.66,0-3,1.34-3,3v8.9C45.54,31.44,46.89,32.78,48.54,32.78 M83.64,11.46H44.36c-2.89,0-5.23,2.34-5.23,5.23v13.09 H11.12c-3.77,0-6.82,3.05-6.82,6.82v27.27c0,1.08,0.54,2.07,1.44,2.68c0.14,0.1,0.3,0.19,0.45,0.28v41.8 c0,4.44,3.6,8.03,8.03,8.03h99.57c4.43,0,8.03-3.59,8.03-8.03v-41.8c0.15-0.1,0.31-0.19,0.45-0.28c0.89-0.6,1.44-1.6,1.44-2.68 V36.6c0-3.77-3.05-6.82-6.82-6.82H88.87V16.69C88.87,13.8,86.53,11.46,83.64,11.46L83.64,11.46z M48.54,29.78v-8.9h30.91v8.9H64 H48.54L48.54,29.78z" style="fill:#424242;"/>
      </g>
    </g>
  </g>
  <g id="Layer_2" style="display:none;">
    <g style="display:inline;">
      <g style="opacity:0.6;">
        <circle cx="64" cy="64" r="28" style="opacity:0.61;fill:none;stroke:#000000;stroke-width:0.2625;stroke-miterlimit:10;"/>
        <line style="opacity:0.61;fill:none;stroke:#000000;stroke-width:0.25;stroke-miterlimit:10;" x1="84" x2="84" y1="0" y2="128"/>
        <line style="opacity:0.61;fill:none;stroke:#000000;stroke-width:0.25;stroke-miterlimit:10;" x1="44" x2="44" y1="0" y2="128"/>
        <line style="opacity:0.61;fill:none;stroke:#000000;stroke-width:0.25;stroke-miterlimit:10;" x1="64" x2="64" y1="0" y2="128"/>
        <line style="opacity:0.61;fill:none;stroke:#000000;stroke-width:0.25;stroke-miterlimit:10;" x1="128" x2="0" y1="64" y2="64"/>
        <line style="opacity:0.61;fill:none;stroke:#000000;stroke-width:0.25;stroke-miterlimit:10;" x1="128" x2="0" y1="44" y2="44"/>
        <line style="opacity:0.61;fill:none;stroke:#000000;stroke-width:0.25;stroke-miterlimit:10;" x1="128" x2="0" y1="83.75" y2="83.75"/>
        <line style="opacity:0.61;fill:none;stroke:#000000;stroke-width:0.25;stroke-miterlimit:10;" x1="128" x2="0" y1="128" y2="0"/>
        <line style="opacity:0.61;fill:none;stroke:#000000;stroke-width:0.25;stroke-miterlimit:10;" x1="0" x2="128" y1="128" y2="0"/>
        <g style="opacity:0.61;">
          <path d="M64,4.26c32.94,0,59.74,26.8,59.74,59.74S96.94,123.74,64,123.74S4.26,96.94,4.26,64S31.06,4.26,64,4.26 M64,4 C30.86,4,4,30.86,4,64s26.86,60,60,60s60-26.86,60-60S97.14,4,64,4L64,4z"/>
        </g>
        <path d="M107.97,115.97H20.03 c-4.42,0-8.03-3.61-8.03-8.03V20.03c0-4.42,3.61-8.03,8.03-8.03h87.94c4.42,0,8.03,3.61,8.03,8.03v87.91 C116,112.36,112.39,115.97,107.97,115.97z" style="opacity:0.61;fill:none;stroke:#000000;stroke-width:0.2578;stroke-miterlimit:10;"/>
        <path d="M100,124H28c-4.4,0-8-3.6-8-8 V12c0-4.4,3.6-8,8-8h72c4.4,0,8,3.6,8,8v104C108,120.4,104.4,124,100,124z" style="opacity:0.61;fill:none;stroke:#000000;stroke-width:0.2628;stroke-miterlimit:10;"/>
        <path d="M113.77,108H14.23 C8.6,108,4,103.4,4,97.77V30.28c0-5.63,4.6-10.23,10.23-10.23h99.54c5.63,0,10.23,4.6,10.23,10.23v67.48 C124,103.4,119.4,108,113.77,108z" style="opacity:0.61;fill:none;stroke:#000000;stroke-width:0.2627;stroke-miterlimit:10;"/>
      </g>
      <g>
        <g style="opacity:0.2;">
          <defs>
            <rect id="SVGID_2_" height="128" style="opacity:0.2;" width="128" x="0" y="0"/>
          </defs>
          <clipPath id="SVGID_5_">
            <use style="overflow:visible;" xlink:href="#SVGID_2_"/>
          </clipPath>
          <g style="clip-path:url(#SVGID_5_);">
            <g>
              <line style="fill:none;stroke:#000000;stroke-width:0.25;stroke-miterlimit:10;" x1="-28" x2="-28" y1="160" y2="-32"/>
              <line style="fill:none;stroke:#000000;stroke-width:0.25;stroke-miterlimit:10;" x1="-24" x2="-24" y1="160" y2="-32"/>
              <line style="fill:none;stroke:#000000;stroke-width:0.25;stroke-miterlimit:10;" x1="-20" x2="-20" y1="160" y2="-32"/>
              <line style="fill:none;stroke:#000000;stroke-width:0.25;stroke-miterlimit:10;" x1="-16" x2="-16" y1="160" y2="-32"/>
              <line style="fill:none;stroke:#000000;stroke-width:0.25;stroke-miterlimit:10;" x1="-12" x2="-12" y1="160" y2="-32"/>
              <line style="fill:none;stroke:#000000;stroke-width:0.25;stroke-miterlimit:10;" x1="-8" x2="-8" y1="160" y2="-32"/>
              <line style="fill:none;stroke:#000000;stroke-width:0.25;stroke-miterlimit:10;" x1="-4" x2="-4" y1="160" y2="-32"/>
              <line style="fill:none;stroke:#000000;stroke-width:0.25;stroke-miterlimit:10;" x1="0" x2="0" y1="160" y2="-32"/>
              <line style="fill:none;stroke:#000000;stroke-width:0.25;stroke-miterlimit:10;" x1="4" x2="4" y1="160" y2="-32"/>
              <line style="fill:none;stroke:#000000;stroke-width:0.25;stroke-miterlimit:10;" x1="8" x2="8" y1="160" y2="-32"/>
              <line style="fill:none;stroke:#000000;stroke-width:0.25;stroke-miterlimit:10;" x1="12" x2="12" y1="160" y2="-32"/>
              <line style="fill:none;stroke:#000000;stroke-width:0.25;stroke-miterlimit:10;" x1="16" x2="16" y1="160" y2="-32"/>
              <line style="fill:none;stroke:#000000;stroke-width:0.25;stroke-miterlimit:10;" x1="20" x2="20" y1="160" y2="-32"/>
              <line style="fill:none;stroke:#000000;stroke-width:0.25;stroke-miterlimit:10;" x1="24" x2="24" y1="160" y2="-32"/>
              <line style="fill:none;stroke:#000000;stroke-width:0.25;stroke-miterlimit:10;" x1="28" x2="28" y1="160" y2="-32"/>
              <line style="fill:none;stroke:#000000;stroke-width:0.25;stroke-miterlimit:10;" x1="32" x2="32" y1="160" y2="-32"/>
              <line style="fill:none;stroke:#000000;stroke-width:0.25;stroke-miterlimit:10;" x1="36" x2="36" y1="160" y2="-32"/>
              <line style="fill:none;stroke:#000000;stroke-width:0.25;stroke-miterlimit:10;" x1="40" x2="40" y1="160" y2="-32"/>
              <line style="fill:none;stroke:#000000;stroke-width:0.25;stroke-miterlimit:10;" x1="44" x2="44" y1="160" y2="-32"/>
              <line style="fill:none;stroke:#000000;stroke-width:0.25;stroke-miterlimit:10;" x1="48" x2="48" y1="160" y2="-32"/>
              <line style="fill:none;stroke:#000000;stroke-width:0.25;stroke-miterlimit:10;" x1="52" x2="52" y1="160" y2="-32"/>
              <line style="fill:none;stroke:#000000;stroke-width:0.25;stroke-miterlimit:10;" x1="56" x2="56" y1="160" y2="-32"/>
              <line style="fill:none;stroke:#000000;stroke-width:0.25;stroke-miterlimit:10;" x1="60" x2="60" y1="160" y2="-32"/>
              <line style="fill:none;stroke:#000000;stroke-width:0.25;stroke-miterlimit:10;" x1="64" x2="64" y1="160" y2="-32"/>
              <line style="fill:none;stroke:#000000;stroke-width:0.25;stroke-miterlimit:10;" x1="68" x2="68" y1="160" y2="-32"/>
              <line style="fill:none;stroke:#000000;stroke-width:0.25;stroke-miterlimit:10;" x1="72" x2="72" y1="160" y2="-32"/>
              <line style="fill:none;stroke:#000000;stroke-width:0.25;stroke-miterlimit:10;" x1="76" x2="76" y1="160" y2="-32"/>
              <line style="fill:none;stroke:#000000;stroke-width:0.25;stroke-miterlimit:10;" x1="80" x2="80" y1="160" y2="-32"/>
              <line style="fill:none;stroke:#000000;stroke-width:0.25;stroke-miterlimit:10;" x1="84" x2="84" y1="160" y2="-32"/>
              <line style="fill:none;stroke:#000000;stroke-width:0.25;stroke-miterlimit:10;" x1="88" x2="88" y1="160" y2="-32"/>
              <line style="fill:none;stroke:#000000;stroke-width:0.25;stroke-miterlimit:10;" x1="92" x2="92" y1="160" y2="-32"/>
              <line style="fill:none;stroke:#000000;stroke-width:0.25;stroke-miterlimit:10;" x1="96" x2="96" y1="160" y2="-32"/>
              <line style="fill:none;stroke:#000000;stroke-width:0.25;stroke-miterlimit:10;" x1="100" x2="100" y1="160" y2="-32"/>
              <line style="fill:none;stroke:#000000;stroke-width:0.25;stroke-miterlimit:10;" x1="104" x2="104" y1="160" y2="-32"/>
              <line style="fill:none;stroke:#000000;stroke-width:0.25;stroke-miterlimit:10;" x1="108" x2="108" y1="160" y2="-32"/>
              <line style="fill:none;stroke:#000000;stroke-width:0.25;stroke-miterlimit:10;" x1="112" x2="112" y1="160" y2="-32"/>
              <line style="fill:none;stroke:#000000;stroke-width:0.25;stroke-miterlimit:10;" x1="116" x2="116" y1="160" y2="-32"/>
              <line style="fill:none;stroke:#000000;stroke-width:0.25;stroke-miterlimit:10;" x1="120" x2="120" y1="160" y2="-32"/>
              <line style="fill:none;stroke:#000000;stroke-width:0.25;stroke-miterlimit:10;" x1="124" x2="124" y1="160" y2="-32"/>
              <line style="fill:none;stroke:#000000;stroke-width:0.25;stroke-miterlimit:10;" x1="128" x2="128" y1="160" y2="-32"/>
              <line style="fill:none;stroke:#000000;stroke-width:0.25;stroke-miterlimit:10;" x1="132" x2="132" y1="160" y2="-32"/>
              <line style="fill:none;stroke:#000000;stroke-width:0.25;stroke-miterlimit:10;" x1="136" x2="136" y1="160" y2="-32"/>
              <line style="fill:none;stroke:#000000;stroke-width:0.25;stroke-miterlimit:10;" x1="137" x2="137" y1="166.05" y2="-25.95"/>
              <line style="fill:none;stroke:#000000;stroke-width:0.25;stroke-miterlimit:10;" x1="144" x2="144" y1="160" y2="-32"/>
              <line style="fill:none;stroke:#000000;stroke-width:0.25;stroke-miterlimit:10;" x1="148" x2="148" y1="160" y2="-32"/>
              <line style="fill:none;stroke:#000000;stroke-width:0.25;stroke-miterlimit:10;" x1="152" x2="152" y1="160" y2="-32"/>
              <line style="fill:none;stroke:#000000;stroke-width:0.25;stroke-miterlimit:10;" x1="156" x2="156" y1="160" y2="-32"/>
            </g>
            <g>
              <line style="fill:none;stroke:#000000;stroke-width:0.25;stroke-miterlimit:10;" x1="-32" x2="160" y1="-28" y2="-28"/>
              <line style="fill:none;stroke:#000000;stroke-width:0.25;stroke-miterlimit:10;" x1="-32" x2="160" y1="-24" y2="-24"/>
              <line style="fill:none;stroke:#000000;stroke-width:0.25;stroke-miterlimit:10;" x1="-32" x2="160" y1="-20" y2="-20"/>
              <line style="fill:none;stroke:#000000;stroke-width:0.25;stroke-miterlimit:10;" x1="-32" x2="160" y1="-16" y2="-16"/>
              <line style="fill:none;stroke:#000000;stroke-width:0.25;stroke-miterlimit:10;" x1="-32" x2="160" y1="-12" y2="-12"/>
              <line style="fill:none;stroke:#000000;stroke-width:0.25;stroke-miterlimit:10;" x1="-32" x2="160" y1="-8" y2="-8"/>
              <line style="fill:none;stroke:#000000;stroke-width:0.25;stroke-miterlimit:10;" x1="-32" x2="160" y1="-4" y2="-4"/>
              <line style="fill:none;stroke:#000000;stroke-width:0.25;stroke-miterlimit:10;" x1="-32" x2="160" y1="0" y2="0"/>
              <line style="fill:none;stroke:#000000;stroke-width:0.25;stroke-miterlimit:10;" x1="-32" x2="160" y1="4" y2="4"/>
              <line style="fill:none;stroke:#000000;stroke-width:0.25;stroke-miterlimit:10;" x1="-32" x2="160" y1="8" y2="8"/>
              <line style="fill:none;stroke:#000000;stroke-width:0.25;stroke-miterlimit:10;" x1="-32" x2="160" y1="12" y2="12"/>
              <line style="fill:none;stroke:#000000;stroke-width:0.25;stroke-miterlimit:10;" x1="-32" x2="160" y1="16" y2="16"/>
              <line style="fill:none;stroke:#000000;stroke-width:0.25;stroke-miterlimit:10;" x1="-32" x2="160" y1="20" y2="20"/>
              <line style="fill:none;stroke:#000000;stroke-width:0.25;stroke-miterlimit:10;" x1="-32" x2="160" y1="24" y2="24"/>
              <line style="fill:none;stroke:#000000;stroke-width:0.25;stroke-miterlimit:10;" x1="-32" x2="160" y1="28" y2="28"/>
              <line style="fill:none;stroke:#000000;stroke-width:0.25;stroke-miterlimit:10;" x1="-32" x2="160" y1="32" y2="32"/>
              <line style="fill:none;stroke:#000000;stroke-width:0.25;stroke-miterlimit:10;" x1="-32" x2="160" y1="36" y2="36"/>
              <line style="fill:none;stroke:#000000;stroke-width:0.25;stroke-miterlimit:10;" x1="-32" x2="160" y1="40" y2="40"/>
              <line style="fill:none;stroke:#000000;stroke-width:0.25;stroke-miterlimit:10;" x1="-32" x2="160" y1="44" y2="44"/>
              <line style="fill:none;stroke:#000000;stroke-width:0.25;stroke-miterlimit:10;" x1="-32" x2="160" y1="48" y2="48"/>
              <line style="fill:none;stroke:#000000;stroke-width:0.25;stroke-miterlimit:10;" x1="-32" x2="160" y1="52" y2="52"/>
              <line style="fill:none;stroke:#000000;stroke-width:0.25;stroke-miterlimit:10;" x1="-32" x2="160" y1="56" y2="56"/>
              <line style="fill:none;stroke:#000000;stroke-width:0.25;stroke-miterlimit:10;" x1="-32" x2="160" y1="60" y2="60"/>
              <line style="fill:none;stroke:#000000;stroke-width:0.25;stroke-miterlimit:10;" x1="-32" x2="160" y1="64" y2="64"/>
              <line style="fill:none;stroke:#000000;stroke-width:0.25;stroke-miterlimit:10;" x1="-32" x2="160" y1="68" y2="68"/>
              <line style="fill:none;stroke:#000000;stroke-width:0.25;stroke-miterlimit:10;" x1="-32" x2="160" y1="72" y2="72"/>
              <line style="fill:none;stroke:#000000;stroke-width:0.25;stroke-miterlimit:10;" x1="-32" x2="160" y1="76" y2="76"/>
              <line style="fill:none;stroke:#000000;stroke-width:0.25;stroke-miterlimit:10;" x1="-32" x2="160" y1="80" y2="80"/>
              <line style="fill:none;stroke:#000000;stroke-width:0.25;stroke-miterlimit:10;" x1="-32" x2="160" y1="84" y2="84"/>
              <line style="fill:none;stroke:#000000;stroke-width:0.25;stroke-miterlimit:10;" x1="-32" x2="160" y1="88" y2="88"/>
              <line style="fill:none;stroke:#000000;stroke-width:0.25;stroke-miterlimit:10;" x1="-32" x2="160" y1="92" y2="92"/>
              <line style="fill:none;stroke:#000000;stroke-width:0.25;stroke-miterlimit:10;" x1="-32" x2="160" y1="96" y2="96"/>
              <line style="fill:none;stroke:#000000;stroke-width:0.25;stroke-miterlimit:10;" x1="-32" x2="160" y1="100" y2="100"/>
              <line style="fill:none;stroke:#000000;stroke-width:0.25;stroke-miterlimit:10;" x1="-32" x2="160" y1="104" y2="104"/>
              <line style="fill:none;stroke:#000000;stroke-width:0.25;stroke-miterlimit:10;" x1="-32" x2="160" y1="108" y2="108"/>
              <line style="fill:none;stroke:#000000;stroke-width:0.25;stroke-miterlimit:10;" x1="-32" x2="160" y1="112" y2="112"/>
              <line style="fill:none;stroke:#000000;stroke-width:0.25;stroke-miterlimit:10;" x1="-32" x2="160" y1="116" y2="116"/>
              <line style="fill:none;stroke:#000000;stroke-width:0.25;stroke-miterlimit:10;" x1="-32" x2="160" y1="120" y2="120"/>
              <line style="fill:none;stroke:#000000;stroke-width:0.25;stroke-miterlimit:10;" x1="-32" x2="160" y1="124" y2="124"/>
              <line style="fill:none;stroke:#000000;stroke-width:0.25;stroke-miterlimit:10;" x1="-32" x2="160" y1="128" y2="128"/>
              <line style="fill:none;stroke:#000000;stroke-width:0.25;stroke-miterlimit:10;" x1="-32" x2="160" y1="132" y2="132"/>
              <line style="fill:none;stroke:#000000;stroke-width:0.25;stroke-miterlimit:10;" x1="-32" x2="160" y1="136" y2="136"/>
              <line style="fill:none;stroke:#000000;stroke-width:0.25;stroke-miterlimit:10;" x1="-32" x2="160" y1="140" y2="140"/>
              <line style="fill:none;stroke:#000000;stroke-width:0.25;stroke-miterlimit:10;" x1="-32" x2="160" y1="144" y2="144"/>
              <line style="fill:none;stroke:#000000;stroke-width:0.25;stroke-miterlimit:10;" x1="-32" x2="160" y1="148" y2="148"/>
              <line style="fill:none;stroke:#000000;stroke-width:0.25;stroke-miterlimit:10;" x1="-32" x2="160" y1="152" y2="152"/>
              <line style="fill:none;stroke:#000000;stroke-width:0.25;stroke-miterlimit:10;" x1="-32" x2="160" y1="156" y2="156"/>
            </g>
            <path d="M159.75-31.75v191.5h-191.5v-191.5H159.75 M160-32H-32v192h192V-32L160-32z"/>
          </g>
        </g>
        <g>
          <rect height="128" style="opacity:0.3;fill:#F44336;" width="4" x="0" y="0"/>
          <rect height="128" style="opacity:0.3;fill:#F44336;" width="4" x="124" y="0"/>
          <rect height="120" style="opacity:0.3;fill:#F44336;" transform="matrix(-1.836970e-16 1 -1 -1.836970e-16 66 -62)" width="4" x="62" y="-58"/>
          <rect height="120" style="opacity:0.3;fill:#F44336;" transform="matrix(-1.836970e-16 1 -1 -1.836970e-16 190 62)" width="4" x="62" y="66"/>
        </g>
      </g>
    </g>
  </g>
</svg>
